X: 43209
T: Witches, The
R: reel
M: 4/4
K: Eminor
GA|:"Em" B2BA BE (3EEE|Bd^cA B2 BG|"D" A2 AB AD (3DDD|FDFG A2d^c|
"Em" B2 BA BE (3EEE|Bd^cA B2 cd|e2 ef edBA|G2 FD E4:|
"G" G2 GA Bdef|g2 gf gfef|gefd edBG|A2 AG "D7" A2 GA|
"G" B3 A Bdef|g2 gf gfef|gefd edBA|B2 "D7" c4 BA|
"G" G2 GA Bdef|g2 gf gfef|gefd edBG|(3 Bcd cB "D7" A2BA|
"G" G2 GA Bdef|g2 gf gfef|gefd edBd|"Em" e6 b2-|
b8|"D" a3 g fgaf|"C" gefd edBG|"Bm" A2 AG AGFD|"Am" E3 G A2 GA|
"Bm" Bc dB cdef|"C" fgaf gfed|"D" e2 ed e2 b2-|"Em" b4 agfe|
"D" a4 gfef|"C" gefd edBG|"Bm" A2 AG ABde-|"Am" e2 de f2 ef|
"Bm" g2 a4 b2-|"C" bagf eagf|"D" edBA GFGA|

